src/assets/img/404.svg

<svg xmlns="http://www.w3.org/2000/svg" width="685" height="422" fill="none" viewBox="0 0 685 422"><path fill="url(#a)" d="M629.27 49.91H97.03c-15.46 0-28 12.54-28 28V391.6c0 15.46 12.54 28 28 28h532.24c15.46 0 28-12.54 28-28V77.91c0-15.46-12.54-28-28-28"/><path fill="#efefef" stroke="#efefef" stroke-opacity=".94" stroke-width="4" d="M573.21 77.09h-40.77c-6.4 0-11.59 5.19-11.59 11.59s5.19 11.59 11.59 11.59h40.77c6.4 0 11.58-5.19 11.58-11.59s-5.18-11.59-11.58-11.59ZM487.14 77.09h-40.76c-6.4 0-11.59 5.19-11.59 11.59s5.19 11.59 11.59 11.59h40.76c6.4 0 11.59-5.19 11.59-11.59s-5.19-11.59-11.59-11.59ZM412.67 88.68c0-6.4-5.19-11.59-11.59-11.59s-11.58 5.19-11.58 11.59 5.18 11.59 11.58 11.59 11.59-5.19 11.59-11.59Z"/><path fill="#efefef" fill-opacity=".75" d="M142.55 292.31h79.06v28.96h33.3v-28.96h20.42v-27.9h-20.42V156.56h-43.59l-68.77 108.33zm79.7-27.9h-44.63v-1.29l43.35-68.6h1.28zm140.87 60.48c41.42 0 66.43-31.53 66.51-85.82.08-53.88-25.25-84.76-66.51-84.76-41.34 0-66.43 30.8-66.51 84.76-.16 54.13 25.01 85.74 66.51 85.82m0-28.88c-18.9 0-31.13-18.98-31.05-56.94.08-37.39 12.23-56.21 31.05-56.21 18.74 0 30.96 18.82 30.96 56.21.08 37.96-12.14 56.94-30.96 56.94m88.85-3.7h79.06v28.96h33.29v-28.96h20.43v-27.9h-20.43V156.56h-43.59l-68.76 108.33zm79.7-27.9h-44.64v-1.29l43.35-68.6h1.29z"/><path fill="#efefef" stroke="#efefef" stroke-opacity=".94" stroke-width="4" d="M125.05 86.42c0-5.15-4.18-9.33-9.33-9.33s-9.32 4.18-9.32 9.33c0 5.14 4.17 9.32 9.32 9.32s9.33-4.18 9.33-9.32Z"/><path fill="url(#b)" d="M76.7 298.71c6.53 0 11.83 5.3 11.83 11.84 0 6.53-5.3 11.83-11.83 11.83-6.54 0-11.83-5.3-11.83-11.83 0-6.54 5.29-11.84 11.83-11.84"/><path fill="url(#c)" d="M656.19 136.37c8.43-3.56 18.15.39 21.71 8.82s-.39 18.15-8.82 21.71-18.15-.39-21.71-8.82.39-18.15 8.82-21.71"/><path fill="#efefef" fill-opacity=".94" d="M356.81 100.92c-6.82 0-12.35-5.53-12.35-12.35s5.53-12.35 12.35-12.35 12.35 5.53 12.35 12.35-5.53 12.35-12.35 12.35"/><path fill="url(#d)" d="M209.16 59.27c9.08 0 16.43-7.36 16.43-16.44 0-9.07-7.35-16.43-16.43-16.43s-16.44 7.36-16.44 16.43c0 9.08 7.36 16.44 16.44 16.44"/><path fill="url(#e)" d="M444.11 341.2c-7.5 0-13.59 6.08-13.59 13.59 0 7.5 6.09 13.59 13.59 13.59 7.51 0 13.59-6.09 13.59-13.59 0-7.51-6.08-13.59-13.59-13.59"/><path fill="#efefef" fill-opacity=".94" d="M192.76 393.36c-6.9 0-12.49-5.59-12.49-12.49s5.59-12.49 12.49-12.49 12.49 5.59 12.49 12.49-5.59 12.49-12.49 12.49M317.77 334.56c4.47 2.58 6.01 8.31 3.42 12.78-2.58 4.48-8.31 6.01-12.78 3.43a9.37 9.37 0 0 1-3.43-12.79c2.58-4.47 8.31-6.01 12.79-3.42M626.46 74.48 609.43 91.5c-.62.62-.62 1.63 0 2.25s1.63.62 2.25 0l17.02-17.03c.62-.62.62-1.62 0-2.24s-1.62-.62-2.24 0M624.79 86.67l-4.91 4.91c-.62.62-.62 1.62 0 2.24s1.63.62 2.25 0l4.91-4.91c.62-.62.62-1.62 0-2.24s-1.63-.62-2.25 0M101.39 375.04l-15.24 15.24a1.43 1.43 0 0 0 0 2.01c.56.55 1.46.55 2.01 0l15.23-15.24a1.4 1.4 0 0 0 0-2v-.01c-.55-.55-1.45-.55-2 0M99.9 385.95l-4.4 4.39a1.43 1.43 0 0 0 0 2.01c.56.56 1.46.56 2.01 0l4.39-4.39c.56-.56.56-1.46 0-2.01a1.4 1.4 0 0 0-2 0M27.56 78.79l29.45-29.45a2.76 2.76 0 0 0 0-3.89 2.746 2.746 0 0 0-3.88 0L23.68 74.9a2.74 2.74 0 0 0 0 3.89 2.746 2.746 0 0 0 3.88 0M30.44 57.7l8.5-8.49a2.746 2.746 0 0 0 0-3.88 2.74 2.74 0 0 0-3.89 0l-8.49 8.49a2.746 2.746 0 0 0 0 3.88 2.746 2.746 0 0 0 3.88 0M612.41 395.57l20.73-20.74c.76-.75.76-1.97 0-2.73-.75-.75-1.98-.75-2.73 0l-20.73 20.73c-.76.76-.76 1.98 0 2.74.75.75 1.97.75 2.73 0M614.44 380.72l5.98-5.98c.75-.75.75-1.98 0-2.73a1.92 1.92 0 0 0-2.73 0l-5.98 5.98a1.92 1.92 0 0 0 0 2.73c.75.76 1.97.76 2.73 0"/><path fill="#efefef" fill-opacity=".94" fill-rule="evenodd" d="M598.43 13.77h3.3c.8 0 1.44.65 1.44 1.44v3.31c0 .8-.65 1.44-1.44 1.44h-3.3c-.79 0-1.44-.65-1.44-1.44v-3.31c0-.18.03-.37.11-.55.07-.17.17-.33.31-.47a1.459 1.459 0 0 1 1.02-.42m11.45 0h3.31c.79 0 1.44.65 1.44 1.44v3.31c0 .8-.65 1.44-1.44 1.44h-3.31c-.79 0-1.44-.65-1.44-1.44v-3.31c0-.79.65-1.44 1.44-1.44m11.47 0h3.3c.79 0 1.44.65 1.44 1.44v3.31c0 .8-.65 1.44-1.44 1.44h-3.3c-.8 0-1.45-.65-1.45-1.44v-3.31c0-.18.04-.37.11-.55.08-.17.18-.33.32-.47.13-.13.29-.24.46-.31.18-.07.37-.11.56-.11m11.45 0h3.31c.79 0 1.44.65 1.44 1.44v3.31c0 .8-.65 1.44-1.44 1.44h-3.31c-.38 0-.75-.15-1.02-.42a1.5 1.5 0 0 1-.43-1.02v-3.31c.01-.38.16-.74.43-1.01a1.5 1.5 0 0 1 1.02-.43m11.46 0h3.3c.8 0 1.45.65 1.45 1.44v3.31c0 .8-.65 1.44-1.45 1.44h-3.3c-.79 0-1.44-.65-1.44-1.44v-3.31c0-.79.65-1.44 1.44-1.44m-33.96 12.5h3.31c.79 0 1.44.64 1.44 1.44v3.31c0 .79-.65 1.44-1.44 1.44h-3.31c-.8 0-1.44-.65-1.44-1.44v-3.31c0-.19.04-.37.11-.55s.18-.34.31-.47c.13-.14.29-.24.47-.32.17-.07.36-.11.55-.1m11.46 0h3.3c.8 0 1.45.64 1.45 1.44v3.31c0 .79-.65 1.44-1.45 1.44h-3.3c-.79 0-1.44-.65-1.44-1.44v-3.31c0-.19.03-.37.1-.55.08-.18.18-.34.32-.47.13-.14.29-.24.47-.32.17-.07.36-.11.55-.1m11.46 0h3.3c.8 0 1.45.64 1.45 1.44v3.31c0 .38-.16.75-.43 1.02s-.64.42-1.02.42h-3.3c-.8 0-1.45-.65-1.45-1.44v-3.31c0-.8.65-1.44 1.45-1.44M621.35.35h3.3c.79 0 1.44.65 1.44 1.45v3.3c0 .8-.65 1.44-1.44 1.44h-3.3c-.8 0-1.45-.65-1.45-1.44V1.8c0-.19.04-.38.11-.56.08-.17.18-.33.32-.47.13-.13.29-.24.46-.31.18-.07.37-.11.56-.11m11.45 0h3.31c.79 0 1.44.65 1.44 1.45v3.3c0 .8-.65 1.44-1.44 1.44h-3.31c-.38 0-.75-.15-1.02-.42a1.5 1.5 0 0 1-.43-1.02V1.8c.01-.39.16-.75.43-1.02a1.5 1.5 0 0 1 1.02-.43M1.66 403.31h3.31c.8 0 1.44.65 1.44 1.44v3.31c0 .8-.65 1.44-1.44 1.44H1.66c-.79 0-1.44-.65-1.44-1.44v-3.31c0-.18.04-.37.11-.55.07-.17.18-.33.31-.47.14-.13.3-.24.47-.31.18-.07.36-.11.55-.11m11.46 0h3.3c.79 0 1.44.65 1.44 1.44v3.31c0 .8-.65 1.44-1.44 1.44h-3.3c-.79 0-1.44-.65-1.44-1.44v-3.31c0-.79.65-1.44 1.44-1.44m11.46 0h3.31c.79 0 1.44.65 1.44 1.44v3.31c0 .8-.65 1.44-1.44 1.44h-3.31c-.79 0-1.44-.65-1.44-1.44v-3.31c0-.18.04-.37.11-.55.07-.17.18-.33.31-.46.13-.14.29-.24.47-.32.17-.07.36-.11.55-.11m11.46 0h3.3c.79 0 1.44.65 1.44 1.44v3.31c0 .8-.65 1.44-1.44 1.44h-3.3c-.39 0-.75-.15-1.03-.42-.27-.27-.42-.64-.42-1.02v-3.31c0-.38.16-.74.43-1.01s.63-.43 1.02-.43m11.45 0h3.31c.8 0 1.45.65 1.45 1.44v3.31c0 .8-.65 1.44-1.45 1.44h-3.31c-.79 0-1.44-.65-1.44-1.44v-3.31c0-.79.65-1.44 1.44-1.44m-33.95 12.5h3.3c.79 0 1.44.64 1.44 1.44v3.31c0 .79-.65 1.44-1.44 1.44h-3.3c-.8 0-1.44-.65-1.44-1.44v-3.31c-.01-.19.03-.37.1-.55.08-.18.18-.34.32-.47.13-.13.29-.24.46-.31.18-.08.37-.11.56-.11m11.45 0h3.31c.79 0 1.44.64 1.44 1.44v3.31c0 .79-.65 1.44-1.44 1.44h-3.31c-.79 0-1.44-.65-1.44-1.44v-3.31c0-.19.04-.37.11-.55s.18-.34.31-.47c.14-.13.29-.24.47-.31.18-.08.36-.11.55-.11m11.46 0h3.3c.8 0 1.45.64 1.45 1.44v3.31c0 .38-.15.75-.42 1.02-.28.27-.64.42-1.03.42h-3.3c-.79 0-1.44-.65-1.44-1.44v-3.31c0-.8.65-1.44 1.44-1.44m-11.87-25.92h3.31c.79 0 1.44.65 1.44 1.45v3.3c0 .8-.65 1.44-1.44 1.44h-3.31c-.79 0-1.44-.65-1.44-1.44v-3.3c0-.19.04-.38.11-.56.07-.17.18-.33.31-.47a1.459 1.459 0 0 1 1.02-.42m11.46 0h3.3c.79 0 1.44.65 1.44 1.45v3.3c0 .8-.65 1.44-1.44 1.44h-3.3c-.39 0-.75-.15-1.03-.42-.27-.27-.42-.64-.42-1.02v-3.3c0-.39.16-.75.43-1.02s.63-.43 1.02-.43" clip-rule="evenodd"/><path fill="url(#f)" fill-rule="evenodd" d="M70.88 236.92c-24.64 0-44.62-20.26-44.62-45.24 0-24.99 19.98-45.25 44.62-45.25s44.62 20.26 44.62 45.25c0 24.98-19.98 45.24-44.62 45.24" clip-rule="evenodd"/><path stroke="#efefef" stroke-linecap="round" stroke-linejoin="round" stroke-width="7.41" d="m88.86 172.48-18.85 20.11-11.32-12.07"/><path stroke="#efefef" stroke-linecap="round" stroke-linejoin="round" stroke-width="7.41" d="m51.18 211.84 18.85-20.11 11.31 12.06"/><defs><linearGradient id="a" x1="69.03" x2="657.27" y1="234.76" y2="234.76" gradientUnits="userSpaceOnUse"><stop stop-color="#2da44a"/><stop offset=".5" stop-color="#3dd6b3"/><stop offset="1" stop-color="#2c7fa3"/></linearGradient><linearGradient id="b" x1="64.87" x2="88.53" y1="310.55" y2="310.55" gradientUnits="userSpaceOnUse"><stop stop-color="#2da44a"/><stop offset="1" stop-color="#2c7fa3"/></linearGradient><linearGradient id="c" x1="647.37" x2="677.9" y1="158.08" y2="145.19" gradientUnits="userSpaceOnUse"><stop stop-color="#2da44a"/><stop offset="1" stop-color="#2c7fa3"/></linearGradient><linearGradient id="d" x1="192.72" x2="225.59" y1="42.83" y2="42.83" gradientUnits="userSpaceOnUse"><stop stop-color="#2da44a"/><stop offset="1" stop-color="#2c7fa3"/></linearGradient><linearGradient id="e" x1="457.7" x2="430.52" y1="354.79" y2="354.79" gradientUnits="userSpaceOnUse"><stop stop-color="#2da44a"/><stop offset="1" stop-color="#2c7fa3"/></linearGradient><linearGradient id="f" x1="26.26" x2="115.5" y1="191.68" y2="191.68" gradientUnits="userSpaceOnUse"><stop stop-color="#2da44a"/><stop offset="1" stop-color="#2c7fa3"/></linearGradient></defs></svg>

<svg xmlns="http://www.w3.org/2000/svg" width="685" height="422" viewBox="0 0 685 422" fill="none"><path d="M629.27 49.91H97.03C81.57 49.91 69.03 62.45 69.03 77.91V391.6C69.03 407.06 81.57 419.6 97.03 419.6H629.27C644.73 419.6 657.27 407.06 657.27 391.6V77.91C657.27 62.45 644.73 49.91 629.27 49.91Z" fill="url(#paint0_linear_219_62)"/><path d="M573.21 77.09H532.44C526.04 77.09 520.85 82.28 520.85 88.68C520.85 95.08 526.04 100.27 532.44 100.27H573.21C579.61 100.27 584.79 95.08 584.79 88.68C584.79 82.28 579.61 77.09 573.21 77.09Z" fill="#EFEFEF" stroke="#EFEFEF" stroke-opacity="0.94" stroke-width="4"/><path d="M487.14 77.09H446.38C439.98 77.09 434.79 82.28 434.79 88.68C434.79 95.08 439.98 100.27 446.38 100.27H487.14C493.54 100.27 498.73 95.08 498.73 88.68C498.73 82.28 493.54 77.09 487.14 77.09Z" fill="#EFEFEF" stroke="#EFEFEF" stroke-opacity="0.94" stroke-width="4"/><path d="M412.67 88.68C412.67 82.28 407.48 77.09 401.08 77.09C394.68 77.09 389.50 82.28 389.50 88.68C389.50 95.08 394.68 100.27 401.08 100.27C407.48 100.27 412.67 95.08 412.67 88.68Z" fill="#EFEFEF" stroke="#EFEFEF" stroke-opacity="0.94" stroke-width="4"/><path d="M142.55 292.31H221.61V321.27H254.91V292.31H275.33V264.41H254.91V156.56H211.32L142.55 264.89V292.31ZM222.25 264.41H177.62V263.12L220.97 194.52H222.25V264.41ZM363.12 324.89C404.54 324.89 429.55 293.36 429.63 239.07C429.71 185.19 404.38 154.31 363.12 154.31C321.78 154.31 296.69 185.11 296.61 239.07C296.45 293.20 321.62 324.81 363.12 324.89ZM363.12 296.01C344.22 296.01 331.99 277.03 332.07 239.07C332.15 201.68 344.30 182.86 363.12 182.86C381.86 182.86 394.08 201.68 394.08 239.07C394.16 277.03 381.94 296.01 363.12 296.01ZM451.97 292.31H531.03V321.27H564.32V292.31H584.75V264.41H564.32V156.56H520.73L451.97 264.89V292.31ZM531.67 264.41H487.03V263.12L530.38 194.52H531.67V264.41Z" fill="#EFEFEF" fill-opacity="0.75"/><path d="M125.05 86.42C125.05 81.27 120.87 77.09 115.72 77.09C110.57 77.09 106.40 81.27 106.40 86.42C106.40 91.56 110.57 95.74 115.72 95.74C120.87 95.74 125.05 91.56 125.05 86.42Z" fill="#EFEFEF" stroke="#EFEFEF" stroke-opacity="0.94" stroke-width="4"/><path d="M76.70 298.71C83.23 298.71 88.53 304.01 88.53 310.55C88.53 317.08 83.23 322.38 76.70 322.38C70.16 322.38 64.87 317.08 64.87 310.55C64.87 304.01 70.16 298.71 76.70 298.71Z" fill="url(#paint1_linear_219_62)"/><path d="M656.19 136.37C664.62 132.81 674.34 136.76 677.90 145.19C681.46 153.62 677.51 163.34 669.08 166.90C660.65 170.46 650.93 166.51 647.37 158.08C643.81 149.65 647.76 139.93 656.19 136.37Z" fill="url(#paint2_linear_219_62)"/><path d="M356.81 100.92C349.99 100.92 344.46 95.39 344.46 88.57C344.46 81.75 349.99 76.22 356.81 76.22C363.63 76.22 369.16 81.75 369.16 88.57C369.16 95.39 363.63 100.92 356.81 100.92Z" fill="#EFEFEF" fill-opacity="0.94"/><path d="M209.16 59.27C218.24 59.27 225.59 51.91 225.59 42.83C225.59 33.76 218.24 26.40 209.16 26.40C200.08 26.40 192.72 33.76 192.72 42.83C192.72 51.91 200.08 59.27 209.16 59.27Z" fill="url(#paint3_linear_219_62)"/><path d="M444.11 341.2C436.61 341.2 430.52 347.28 430.52 354.79C430.52 362.29 436.61 368.38 444.11 368.38C451.62 368.38 457.70 362.29 457.70 354.79C457.70 347.28 451.62 341.2 444.11 341.2Z" fill="url(#paint4_linear_219_62)"/><path d="M192.76 393.36C185.86 393.36 180.27 387.77 180.27 380.87C180.27 373.97 185.86 368.38 192.76 368.38C199.66 368.38 205.25 373.97 205.25 380.87C205.25 387.77 199.66 393.36 192.76 393.36Z" fill="#EFEFEF" fill-opacity="0.94"/><path d="M317.77 334.56C322.24 337.14 323.78 342.87 321.19 347.34C318.61 351.82 312.88 353.35 308.41 350.77C303.93 348.18 302.40 342.46 304.98 337.98C307.56 333.51 313.29 331.97 317.77 334.56Z" fill="#EFEFEF" fill-opacity="0.94"/><path d="M626.46 74.48L609.43 91.50C608.81 92.12 608.81 93.13 609.43 93.75C610.05 94.37 611.06 94.37 611.68 93.75L628.70 76.72C629.32 76.10 629.32 75.10 628.70 74.48C628.08 73.86 627.08 73.86 626.46 74.48Z" fill="#EFEFEF" fill-opacity="0.94"/><path d="M624.79 86.67L619.88 91.58C619.26 92.20 619.26 93.20 619.88 93.82C620.50 94.44 621.51 94.44 622.13 93.82L627.04 88.91C627.66 88.29 627.66 87.29 627.04 86.67C626.42 86.05 625.41 86.05 624.79 86.67Z" fill="#EFEFEF" fill-opacity="0.94"/><path d="M101.39 375.04L86.15 390.28C85.60 390.83 85.60 391.73 86.15 392.29L86.15 392.29C86.71 392.84 87.61 392.84 88.16 392.29L103.39 377.05C103.95 376.50 103.95 375.60 103.39 375.05L103.39 375.04C102.84 374.49 101.94 374.49 101.39 375.04Z" fill="#EFEFEF" fill-opacity="0.94"/><path d="M99.90 385.95L95.50 390.34C94.95 390.90 94.95 391.80 95.50 392.35L95.50 392.35C96.06 392.91 96.96 392.91 97.51 392.35L101.90 387.96C102.46 387.40 102.46 386.50 101.90 385.95L101.90 385.95C101.35 385.39 100.45 385.39 99.90 385.95Z" fill="#EFEFEF" fill-opacity="0.94"/><path d="M27.56 78.79L57.01 49.34C58.08 48.27 58.08 46.53 57.01 45.45C55.94 44.38 54.20 44.38 53.13 45.45L23.68 74.90C22.60 75.98 22.60 77.71 23.68 78.79C24.75 79.86 26.49 79.86 27.56 78.79Z" fill="#EFEFEF" fill-opacity="0.94"/><path d="M30.44 57.70L38.94 49.21C40.01 48.14 40.01 46.40 38.94 45.33C37.86 44.25 36.13 44.25 35.05 45.33L26.56 53.82C25.49 54.89 25.49 56.63 26.56 57.70C27.63 58.77 29.37 58.77 30.44 57.70Z" fill="#EFEFEF" fill-opacity="0.94"/><path d="M612.41 395.57L633.14 374.83C633.90 374.08 633.90 372.86 633.14 372.1C632.39 371.35 631.16 371.35 630.41 372.1L609.68 392.83C608.92 393.59 608.92 394.81 609.68 395.57C610.43 396.32 611.65 396.32 612.41 395.57Z" fill="#EFEFEF" fill-opacity="0.94"/><path d="M614.44 380.72L620.42 374.74C621.17 373.99 621.17 372.76 620.42 372.01C619.66 371.25 618.44 371.25 617.69 372.01L611.71 377.99C610.95 378.74 610.95 379.97 611.71 380.72C612.46 381.48 613.68 381.48 614.44 380.72Z" fill="#EFEFEF" fill-opacity="0.94"/><path fill-rule="evenodd" clip-rule="evenodd" d="M598.43 13.77H601.73C602.53 13.77 603.17 14.42 603.17 15.21V18.52C603.17 19.32 602.52 19.96 601.73 19.96H598.43C597.64 19.96 596.99 19.31 596.99 18.52V15.21C596.99 15.03 597.02 14.84 597.10 14.66C597.17 14.49 597.27 14.33 597.41 14.19C597.54 14.06 597.70 13.95 597.88 13.88C598.05 13.81 598.24 13.77 598.43 13.77ZM609.88 13.77H613.19C613.98 13.77 614.63 14.42 614.63 15.21V18.52C614.63 19.32 613.98 19.96 613.19 19.96H609.88C609.09 19.96 608.44 19.31 608.44 18.52V15.21C608.44 14.42 609.09 13.77 609.88 13.77ZM621.35 13.77H624.65C625.44 13.77 626.09 14.42 626.09 15.21V18.52C626.09 19.32 625.44 19.96 624.65 19.96H621.35C620.55 19.96 619.90 19.31 619.90 18.52V15.21C619.90 15.03 619.94 14.84 620.01 14.66C620.09 14.49 620.19 14.33 620.33 14.19C620.46 14.06 620.62 13.95 620.79 13.88C620.97 13.81 621.16 13.77 621.35 13.77ZM632.80 13.77H636.11C636.90 13.77 637.55 14.42 637.55 15.21V18.52C637.55 19.32 636.90 19.96 636.11 19.96H632.80C632.42 19.96 632.05 19.81 631.78 19.54C631.51 19.27 631.36 18.90 631.35 18.52V15.21C631.36 14.83 631.51 14.47 631.78 14.20C632.05 13.93 632.42 13.78 632.80 13.77ZM644.26 13.77H647.56C648.36 13.77 649.01 14.42 649.01 15.21V18.52C649.01 19.32 648.36 19.96 647.56 19.96H644.26C643.47 19.96 642.82 19.31 642.82 18.52V15.21C642.82 14.42 643.47 13.77 644.26 13.77ZM610.30 26.27H613.61C614.40 26.27 615.05 26.91 615.05 27.71V31.02C615.05 31.81 614.40 32.46 613.61 32.46H610.30C609.50 32.46 608.86 31.81 608.86 31.02V27.71C608.86 27.52 608.90 27.34 608.97 27.16C609.04 26.98 609.15 26.82 609.28 26.69C609.41 26.55 609.57 26.45 609.75 26.37C609.92 26.30 610.11 26.26 610.30 26.27ZM621.76 26.27H625.06C625.86 26.27 626.51 26.91 626.51 27.71V31.02C626.51 31.81 625.86 32.46 625.06 32.46H621.76C620.97 32.46 620.32 31.81 620.32 31.02V27.71C620.32 27.52 620.35 27.34 620.42 27.16C620.50 26.98 620.60 26.82 620.74 26.69C620.87 26.55 621.03 26.45 621.21 26.37C621.38 26.30 621.57 26.26 621.76 26.27ZM633.22 26.27H636.52C637.32 26.27 637.97 26.91 637.97 27.71V31.02C637.97 31.40 637.81 31.77 637.54 32.04C637.27 32.31 636.90 32.46 636.52 32.46H633.22C632.42 32.46 631.77 31.81 631.77 31.02V27.71C631.77 26.91 632.42 26.27 633.22 26.27ZM621.35 0.35H624.65C625.44 0.35 626.09 1.00 626.09 1.80V5.10C626.09 5.90 625.44 6.54 624.65 6.54H621.35C620.55 6.54 619.90 5.89 619.90 5.10V1.80C619.90 1.61 619.94 1.42 620.01 1.24C620.09 1.07 620.19 0.91 620.33 0.77C620.46 0.64 620.62 0.53 620.79 0.46C620.97 0.39 621.16 0.35 621.35 0.35ZM632.80 0.35H636.11C636.90 0.35 637.55 1.00 637.55 1.80V5.10C637.55 5.90 636.90 6.54 636.11 6.54H632.80C632.42 6.54 632.05 6.39 631.78 6.12C631.51 5.85 631.36 5.48 631.35 5.10V1.80C631.36 1.41 631.51 1.05 631.78 0.78C632.05 0.51 632.42 0.36 632.80 0.35ZM1.66 403.31H4.97C5.77 403.31 6.41 403.96 6.41 404.75V408.06C6.41 408.86 5.76 409.50 4.97 409.50H1.66C0.87 409.50 0.22 408.85 0.22 408.06V404.75C0.22 404.57 0.26 404.38 0.33 404.20C0.40 404.03 0.51 403.87 0.64 403.73C0.78 403.60 0.94 403.49 1.11 403.42C1.29 403.35 1.47 403.31 1.66 403.31ZM13.12 403.31H16.42C17.21 403.31 17.86 403.96 17.86 404.75V408.06C17.86 408.86 17.21 409.50 16.42 409.50H13.12C12.33 409.50 11.68 408.85 11.68 408.06V404.75C11.68 403.96 12.33 403.31 13.12 403.31ZM24.58 403.31H27.89C28.68 403.31 29.33 403.96 29.33 404.75V408.06C29.33 408.86 28.68 409.50 27.89 409.50H24.58C23.79 409.50 23.14 408.85 23.14 408.06V404.75C23.14 404.57 23.18 404.38 23.25 404.20C23.32 404.03 23.43 403.87 23.56 403.74C23.69 403.60 23.85 403.50 24.03 403.42C24.20 403.35 24.39 403.31 24.58 403.31ZM36.04 403.31H39.34C40.13 403.31 40.78 403.96 40.78 404.75V408.06C40.78 408.86 40.13 409.50 39.34 409.50H36.04C35.65 409.50 35.29 409.35 35.01 409.08C34.74 408.81 34.59 408.44 34.59 408.06V404.75C34.59 404.37 34.75 404.01 35.02 403.74C35.29 403.47 35.65 403.31 36.04 403.31ZM47.49 403.31H50.80C51.60 403.31 52.25 403.96 52.25 404.75V408.06C52.25 408.86 51.60 409.50 50.80 409.50H47.49C46.70 409.50 46.05 408.85 46.05 408.06V404.75C46.05 403.96 46.70 403.31 47.49 403.31ZM13.54 415.81H16.84C17.63 415.81 18.28 416.45 18.28 417.25V420.56C18.28 421.35 17.63 422 16.84 422H13.54C12.74 422 12.10 421.35 12.10 420.56V417.25C12.09 417.06 12.13 416.88 12.20 416.7C12.28 416.52 12.38 416.36 12.52 416.23C12.65 416.10 12.81 415.99 12.98 415.92C13.16 415.84 13.35 415.81 13.54 415.81ZM24.99 415.81H28.30C29.09 415.81 29.74 416.45 29.74 417.25V420.56C29.74 421.35 29.09 422 28.30 422H24.99C24.20 422 23.55 421.35 23.55 420.56V417.25C23.55 417.06 23.59 416.88 23.66 416.7C23.73 416.52 23.84 416.36 23.97 416.23C24.11 416.10 24.26 415.99 24.44 415.92C24.62 415.84 24.80 415.81 24.99 415.81ZM36.45 415.81H39.75C40.55 415.81 41.20 416.45 41.20 417.25V420.56C41.20 420.94 41.05 421.31 40.78 421.58C40.50 421.85 40.14 422 39.75 422H36.45C35.66 422 35.01 421.35 35.01 420.56V417.25C35.01 416.45 35.66 415.81 36.45 415.81ZM24.58 389.89H27.89C28.68 389.89 29.33 390.54 29.33 391.34V394.64C29.33 395.44 28.68 396.08 27.89 396.08H24.58C23.79 396.08 23.14 395.43 23.14 394.64V391.34C23.14 391.15 23.18 390.96 23.25 390.78C23.32 390.61 23.43 390.45 23.56 390.31C23.69 390.18 23.85 390.07 24.03 390.00C24.20 389.93 24.39 389.89 24.58 389.89ZM36.04 389.89H39.34C40.13 389.89 40.78 390.54 40.78 391.34V394.64C40.78 395.44 40.13 396.08 39.34 396.08H36.04C35.65 396.08 35.29 395.93 35.01 395.66C34.74 395.39 34.59 395.02 34.59 394.64V391.34C34.59 390.95 34.75 390.59 35.02 390.32C35.29 390.05 35.65 389.89 36.04 389.89Z" fill="#EFEFEF" fill-opacity="0.94"/><path fill-rule="evenodd" clip-rule="evenodd" d="M70.88 236.92C46.24 236.92 26.26 216.66 26.26 191.68C26.26 166.69 46.24 146.43 70.88 146.43C95.52 146.43 115.50 166.69 115.50 191.68C115.50 216.66 95.52 236.92 70.88 236.92Z" fill="url(#paint5_linear_219_62)"/><path d="M88.86 172.48L70.01 192.59L58.69 180.52" stroke="#EFEFEF" stroke-width="7.41" stroke-linecap="round" stroke-linejoin="round"/><path d="M51.18 211.84L70.03 191.73L81.34 203.79" stroke="#EFEFEF" stroke-width="7.41" stroke-linecap="round" stroke-linejoin="round"/><defs><linearGradient id="paint0_linear_219_62" x1="69.03" y1="234.76" x2="657.27" y2="234.76" gradientUnits="userSpaceOnUse"><stop stop-color="#2DA44A"/><stop offset="0.5" stop-color="#3DD6B3"/><stop offset="1" stop-color="#2C7FA3"/></linearGradient><linearGradient id="paint1_linear_219_62" x1="64.87" y1="310.55" x2="88.53" y2="310.55" gradientUnits="userSpaceOnUse"><stop stop-color="#2DA44A"/><stop offset="1" stop-color="#2C7FA3"/></linearGradient><linearGradient id="paint2_linear_219_62" x1="647.37" y1="158.08" x2="677.90" y2="145.19" gradientUnits="userSpaceOnUse"><stop stop-color="#2DA44A"/><stop offset="1" stop-color="#2C7FA3"/></linearGradient><linearGradient id="paint3_linear_219_62" x1="192.72" y1="42.83" x2="225.59" y2="42.83" gradientUnits="userSpaceOnUse"><stop stop-color="#2DA44A"/><stop offset="1" stop-color="#2C7FA3"/></linearGradient><linearGradient id="paint4_linear_219_62" x1="457.70" y1="354.79" x2="430.52" y2="354.79" gradientUnits="userSpaceOnUse"><stop stop-color="#2DA44A"/><stop offset="1" stop-color="#2C7FA3"/></linearGradient><linearGradient id="paint5_linear_219_62" x1="26.26" y1="191.68" x2="115.50" y2="191.68" gradientUnits="userSpaceOnUse"><stop stop-color="#2DA44A"/><stop offset="1" stop-color="#2C7FA3"/></linearGradient></defs></svg>
